X:623
T:Dermot My Treasure.
R:air
T:diarmuid mo stor.
Z:Tempo: With feeling
M:3/4
L:1/8
K:G
D2|B4 AG|A4 GE|DB,3 D2|E(G2 G2) D|
D4 E>D|d4 c>B|PB2 PA2 PG2|PF2 PE2 PD>D|
B4 AG|A4 GE|D B,3 D2|E G3 G>A|
B2 G2 e2|d B3 G2|D3 E G2|PG4 (E>F)|
PG4 PF>E|G (F2 F2) G|PE2 PD2 PC2|(B,>C) B,2 E>F|
G4 F>E|B4 c>B|(B3 A) PG>A|B4 B2|
B3 A PGF|(A3 G) FE|E2 D3 C|C B,3 D>D|
E3 F GA|B2 d3 c|B3 A G(G/4B/4A/)|G4 D2|
(B3 A) GA|G4 DB,|B3 A GA|B d3 B2|
B4 A>G|G4 F>E|D4 DC|B,4 D>D|
B3 A GA|G4 DG|B3 A GA|c B3 A>G|
G3 F {FA}GE|D B,3 D2|E2 G2 {GB}A2|G4 z2||


